docs/.gitbook/assets/icon-align-right-16@dark.svg

<svg width="32" height="32" viewBox="0 0 16 16" fill="none" xmlns="http://www.w3.org/2000/svg">
<rect x="0" y="0" width="16" height="16" fill="#181c1f"/>
<path fill-rule="evenodd" clip-rule="evenodd" d="M14.25 1C14.6642 1 15 1.33579 15 1.75V14.25C15 14.6642 14.6642 15 14.25 15C13.8358 15 13.5 14.6642 13.5 14.25V1.75C13.5 1.33579 13.8358 1 14.25 1ZM6 4.75C6 3.7835 6.7835 3 7.75 3H10.25C11.2165 3 12 3.7835 12 4.75V5.25C12 6.2165 11.2165 7 10.25 7H7.75C6.7835 7 6 6.2165 6 5.25V4.75ZM7.75 4.5C7.61193 4.5 7.5 4.61193 7.5 4.75V5.25C7.5 5.38807 7.61193 5.5 7.75 5.5H10.25C10.3881 5.5 10.5 5.38807 10.5 5.25V4.75C10.5 4.61193 10.3881 4.5 10.25 4.5H7.75ZM1 10.75C1 9.7835 1.7835 9 2.75 9H10.25C11.2165 9 12 9.7835 12 10.75V11.25C12 12.2165 11.2165 13 10.25 13H2.75C1.7835 13 1 12.2165 1 11.25V10.75ZM2.75 10.5C2.61193 10.5 2.5 10.6119 2.5 10.75V11.25C2.5 11.3881 2.61193 11.5 2.75 11.5H10.25C10.3881 11.5 10.5 11.3881 10.5 11.25V10.75C10.5 10.6119 10.3881 10.5 10.25 10.5H2.75Z" fill="#fff"/>
</svg>

<svg xmlns="http://www.w3.org/2000/svg" width="32" height="32" fill="none" viewBox="0 0 16 16"><path fill="#181c1f" d="M0 0h16v16H0z"/><path fill="#fff" fill-rule="evenodd" d="M14.25 1a.75.75 0 0 1 .75.75v12.5a.75.75 0 0 1-1.5 0V1.75a.75.75 0 0 1 .75-.75M6 4.75C6 3.784 6.784 3 7.75 3h2.5c.966 0 1.75.784 1.75 1.75v.5A1.75 1.75 0 0 1 10.25 7h-2.5A1.75 1.75 0 0 1 6 5.25zm1.75-.25a.25.25 0 0 0-.25.25v.5c0 .138.112.25.25.25h2.5a.25.25 0 0 0 .25-.25v-.5a.25.25 0 0 0-.25-.25zM1 10.75C1 9.784 1.784 9 2.75 9h7.5c.966 0 1.75.784 1.75 1.75v.5A1.75 1.75 0 0 1 10.25 13h-7.5A1.75 1.75 0 0 1 1 11.25zm1.75-.25a.25.25 0 0 0-.25.25v.5c0 .138.112.25.25.25h7.5a.25.25 0 0 0 .25-.25v-.5a.25.25 0 0 0-.25-.25z" clip-rule="evenodd"/></svg>
